assets/Factory worker/Default/Flat/factory_worker_flat_default.svg

<svg width="32" height="32" viewBox="0 0 32 32" fill="none" xmlns="http://www.w3.org/2000/svg">
<path d="M8 18.016C8.89275 17.2788 9.9037 16.6797 11 16.2513L15 16L19 16.248C20.0965 16.6756 21.1074 17.2742 22 18.0111L23.5 24L22 30H8L6.5 24L8 18.016Z" fill="#0084CE"/>
<path d="M15 19.35L11.88 21.54C11.51 21.8 11 21.54 11 21.08V16.2513C12.2415 15.7662 13.5924 15.5 15.005 15.5C16.4144 15.5 17.7617 15.765 19 16.248V21.08C19 21.54 18.49 21.8 18.12 21.54L15 19.35Z" fill="#0074BA"/>
<path d="M22 18.0111V30H26V26.5C26 23.0805 24.443 20.0279 22 18.0111Z" fill="#0074BA"/>
<path d="M8 30V18.016C5.55764 20.0328 4 23.0832 4 26.5V30H8Z" fill="#0074BA"/>
<path d="M15.8959 19.3457L15.2663 19.8997C15.1114 20.0334 14.8886 20.0334 14.7337 19.8997L14.1041 19.3457C13.4068 18.7248 13 17.8364 13 16.9099V13.9582C13.0097 12.8788 13.9007 12 15.0048 12C16.109 12 17 12.8788 17 13.9678V16.9194C16.9903 17.846 16.5932 18.7248 15.8959 19.3457Z" fill="#E6E6E6"/>
<path d="M15 18C13.8932 18 13 17.0345 13 15.8381V13.1514C13 11.9655 13.8932 11 15 11C16.1068 11 17 11.9655 17 13.1619V15.8486C16.9903 17.0345 16.0971 18 15 18Z" fill="#FCB100"/>
<path d="M22.2 8.01H23.08C23.35 8.01 23.57 7.79 23.57 7.51V6.49C23.57 6.22 23.35 6 23.08 6H6.92002C6.64002 6 6.42002 6.22 6.43002 6.49V7.52C6.43002 7.79 6.65002 8.01 6.92002 8.01H7.96997V9.99996H22.2V8.01Z" fill="#321B41"/>
<path d="M21.25 5.29C20.95 4.77 20.48 4.41 19.96 4.23C19.39 4.04 18.89 3.66 18.58 3.15C18.16 2.46 17.4 2 16.54 2C16.21 2 15.89 2.07 15.61 2.19C15.22 2.36 14.78 2.36 14.39 2.19C14.1 2.07 13.79 2 13.46 2C12.61 2 11.86 2.44 11.44 3.11C11.11 3.63 10.62 4.03 10.03 4.23C9.48004 4.42 9.00004 4.81 8.71004 5.36C8.28004 6.16 8.37004 7.12 8.86004 7.83C9.03004 8.09 9.13004 8.4 9.13004 8.71V12.88C9.13004 13.81 9.72004 14.63 10.6 14.94L12.49 15.59V8.17C12.64 8.03 12.76 7.86 12.87 7.67C13.04 7.38 13.14 7.06 13.17 6.75C13.26 6.76 13.36 6.77 13.45 6.77C14.04 6.77 14.58 6.56 14.99 6.2C15.41 6.55 15.94 6.77 16.53 6.77C16.63 6.77 16.72 6.76 16.81 6.75C16.85 7.07 16.94 7.38 17.11 7.67C17.22 7.86 17.35 8.02 17.49 8.17V15.6L19.38 14.95C20.26 14.65 20.85 13.82 20.85 12.89V8.72C20.85 8.41 20.95 8.1 21.13 7.84C21.65 7.1 21.72 6.11 21.25 5.29Z" fill="#F1A11E"/>
<path d="M11.7701 10.5899C11.7701 11.5122 11.0224 12.2599 10.1001 12.2599C9.17774 12.2599 8.43005 11.5122 8.43005 10.5899C8.43005 9.66761 9.17774 8.91992 10.1001 8.91992C11.0224 8.91992 11.7701 9.66761 11.7701 10.5899Z" fill="#FDBB11"/>
<path d="M21.56 10.5899C21.56 11.5122 20.8123 12.2599 19.89 12.2599C18.9677 12.2599 18.22 11.5122 18.22 10.5899C18.22 9.66761 18.9677 8.91992 19.89 8.91992C20.8123 8.91992 21.56 9.66761 21.56 10.5899Z" fill="#FDBB11"/>
<path d="M16.1671 3.05005H13.8334C11.2079 3.05005 9.22836 5.16761 9.5305 7.78697L9.92641 13.5977C10.1973 15.5748 11.9476 17.05 14.0105 17.05H15.0003H15.99C18.0633 17.05 19.8032 15.5748 20.0845 13.5977L20.4596 7.78697C20.8138 5.27801 18.7926 3.05005 16.1671 3.05005Z" fill="#FFC83D"/>
<path d="M11.18 10.28C11.33 9.65995 11.89 9.19995 12.56 9.19995C13.26 9.19995 13.83 9.68995 13.96 10.35C13.99 10.5 13.88 10.63 13.73 10.63H11.45C11.27 10.63 11.13 10.45 11.18 10.28Z" fill="white"/>
<path d="M18.83 10.28C18.68 9.65995 18.12 9.19995 17.45 9.19995C16.75 9.19995 16.18 9.68995 16.05 10.35C16.02 10.5 16.13 10.63 16.28 10.63H18.56C18.74 10.63 18.87 10.46 18.83 10.28Z" fill="white"/>
<path d="M11.86 10.39C11.86 9.88998 12.27 9.47998 12.77 9.47998C13.28 9.47998 13.69 9.88998 13.68 10.39C13.68 10.47 13.67 10.55 13.65 10.63H11.89C11.87 10.55 11.86 10.47 11.86 10.39Z" fill="#7D4533"/>
<path d="M18.15 10.39C18.15 9.88998 17.74 9.47998 17.24 9.47998C16.73 9.47998 16.33 9.88998 16.33 10.39C16.33 10.47 16.34 10.55 16.36 10.63H18.12C18.14 10.55 18.15 10.47 18.15 10.39Z" fill="#7D4533"/>
<path d="M12.77 9.87012C13.06 9.87012 13.29 10.1001 13.29 10.3901C13.29 10.4801 13.27 10.5601 13.23 10.6301H12.31C12.27 10.5601 12.25 10.4801 12.25 10.3901C12.25 10.1001 12.48 9.87012 12.77 9.87012Z" fill="black"/>
<path d="M17.24 9.87012C16.95 9.87012 16.72 10.1001 16.72 10.3901C16.72 10.4801 16.74 10.5601 16.78 10.6301H17.7C17.74 10.5601 17.76 10.4801 17.76 10.3901C17.76 10.1001 17.53 9.87012 17.24 9.87012Z" fill="black"/>
<path d="M12.62 10.0199C12.62 10.1082 12.5484 10.1799 12.46 10.1799C12.3717 10.1799 12.3 10.1082 12.3 10.0199C12.3 9.9315 12.3717 9.85986 12.46 9.85986C12.5484 9.85986 12.62 9.9315 12.62 10.0199Z" fill="white"/>
<path d="M17.12 10.0199C17.12 10.1082 17.0484 10.1799 16.96 10.1799C16.8717 10.1799 16.8 10.1082 16.8 10.0199C16.8 9.9315 16.8717 9.85986 16.96 9.85986C17.0484 9.85986 17.12 9.9315 17.12 10.0199Z" fill="white"/>
<path d="M14.6541 10.2897L14.1583 12.0282C14.0554 12.384 14.2986 12.75 14.6447 12.75H15.3743C15.7204 12.75 15.9636 12.384 15.8607 12.0282L15.365 10.2897C15.2621 9.90342 14.7663 9.90342 14.6541 10.2897Z" fill="#ED9200"/>
<path d="M15.0005 13.7057C14.45 13.7057 13.9301 13.5669 13.4918 13.3212C13.3389 13.2358 13.186 13.4174 13.2777 13.5669C13.6447 14.1542 14.2767 14.5493 15.0005 14.5493C15.7243 14.5493 16.3563 14.1542 16.7233 13.5669C16.8151 13.4174 16.652 13.2465 16.5093 13.3212C16.0607 13.5669 15.551 13.7057 15.0005 13.7057Z" fill="#990839"/>
<path d="M26 23C26.55 23 27 23.4103 27 23.9119V26H25V23.9119C25.01 23.4103 25.45 23 26 23Z" fill="#F59F00"/>
<path d="M26.71 14.92L26 14.21L24.58 15.63C24.2 16.01 23.99 16.52 23.99 17.05V23.59H24.99V16.85C24.99 16.71 25.04 16.58 25.14 16.48L26.71 14.92Z" fill="#D3D3D3"/>
<path d="M27.76 15.04L28.23 13.24C28.31 12.92 28.02 12.63 27.7 12.71L25.89 13.18C25.87 13.19 25.84 13.19 25.82 13.2H25.81C25.55 13.28 25.3 13.42 25.1 13.64C24.54 14.24 24.56 15.19 25.13 15.78C25.74 16.4 26.73 16.41 27.34 15.79C27.56 15.57 27.69 15.31 27.76 15.04Z" fill="#50E2FF"/>
<path d="M26.1699 15.5999C26.6394 15.5999 27.0199 15.2193 27.0199 14.7499C27.0199 14.2805 26.6394 13.8999 26.1699 13.8999C25.7005 13.8999 25.3199 14.2805 25.3199 14.7499C25.3199 15.2193 25.7005 15.5999 26.1699 15.5999Z" fill="white"/>
<path d="M25.52 25.9398H23.47V22.9398C23.47 22.7498 23.63 22.5898 23.82 22.5898H25.17C25.36 22.5898 25.52 22.7498 25.52 22.9398V25.9398V25.9398Z" fill="#533566"/>
<path d="M22.5091 25.5C22.5182 25.1 22.837 24.75 23.2105 24.75H26.2075C26.6447 24.75 27 25.14 27 25.62V29.13C27 29.61 26.6447 30 26.2075 30H23.2105C22.837 30 22.5182 29.69 22.5091 29.28C22.5 29.01 22.6184 28.77 22.8097 28.63C22.6184 28.5 22.5 28.27 22.5 28.01C22.5 27.75 22.6275 27.52 22.8097 27.39C22.6184 27.26 22.5 27.03 22.5 26.77C22.5 26.51 22.6275 26.28 22.8097 26.15C22.6275 26.01 22.5 25.77 22.5091 25.5Z" fill="#FFC83D"/>
<path d="M21.56 4.66992H9.30005V7.31992H21.56V4.66992Z" fill="#321B41"/>
<path d="M11.3451 8.66674C11.3916 8.69984 11.4473 8.71759 11.5044 8.71751C11.5662 8.71718 11.6261 8.69604 11.6744 8.65751C12.1162 8.36439 12.6481 8.23851 13.1744 8.30251C13.21 8.30709 13.2461 8.30447 13.2806 8.29479C13.3151 8.28512 13.3473 8.26859 13.3753 8.24619C13.4033 8.22379 13.4265 8.19599 13.4436 8.16443C13.4606 8.13287 13.4711 8.09821 13.4744 8.06251C13.4817 7.99117 13.4608 7.9198 13.4161 7.86371C13.3715 7.80762 13.3066 7.77129 13.2354 7.76251C12.5663 7.67576 11.8888 7.84155 11.3354 8.22751C11.2904 8.26264 11.2575 8.31094 11.2413 8.36569C11.225 8.42043 11.2263 8.47887 11.245 8.53285C11.2636 8.58682 11.2986 8.63363 11.3451 8.66674Z" fill="#D37034"/>
<path d="M18.3464 8.66151C18.3941 8.69777 18.4524 8.71744 18.5124 8.71751C18.5695 8.71794 18.6264 8.70043 18.673 8.66746C18.7197 8.63448 18.7548 8.58769 18.7735 8.53369C18.7921 8.47969 18.7934 8.42119 18.7771 8.36644C18.7607 8.31169 18.7276 8.26345 18.6824 8.22851C18.1283 7.84388 17.4515 7.67789 16.7824 7.76251C16.7119 7.77296 16.6483 7.81044 16.605 7.86702C16.5617 7.92359 16.5421 7.99481 16.5505 8.06556C16.5588 8.13631 16.5943 8.20104 16.6496 8.24602C16.7048 8.291 16.7754 8.3127 16.8464 8.30651C17.3728 8.24144 17.905 8.3674 18.3464 8.66151Z" fill="#D37034"/>
<path d="M7.97 9.99996C8.18 9.52996 9.95 5.93996 15 5.93996C20.6 5.93996 22.04 9.99996 22.04 9.99996H22.51C22.78 9.99996 22.99 9.77996 22.99 9.51996V6.27996C22.99 4.36599 21.7337 2.74799 20 2.20478L18.72 2.24992H11.27L10 2.19702C8.2611 2.73178 7 4.35231 7 6.26996V9.50996C7 9.77996 7.21 9.99996 7.48 9.99996H7.97Z" fill="#533566"/>
<path d="M20.97 7.60994C20.31 6.97994 19.53 6.47994 18.66 6.11994C17.57 5.66994 16.34 5.43994 15 5.43994C13.78 5.43994 12.64 5.63994 11.62 6.03994C10.78 6.36994 10.01 6.82994 9.33997 7.41994C8.17997 8.41994 7.64997 9.48994 7.50997 9.78994C7.47997 9.85994 7.46997 9.92994 7.46997 9.99994H7.47997H7.96997C8.17997 9.52994 9.94997 5.93994 15 5.93994C20.6 5.93994 22.04 9.99994 22.04 9.99994H22.51C22.52 9.99994 22.53 9.99994 22.54 9.99994C22.54 9.93994 22.53 9.88994 22.51 9.82994C22.5 9.77994 22.1 8.68994 20.97 7.60994Z" fill="#8D65C5"/>
<path d="M13.98 4.37L16.5 3.5L16.43 2H11.27C10.83 2 10.4 2.07 10 2.19V3.81C10 4.12 10.25 4.37 10.56 4.37H13.98Z" fill="#B4F6FC"/>
<path d="M16.43 2L13.98 4.37H19.43C19.74 4.37 20 4.12 20 3.81V2.19C19.6 2.07 19.16 2 18.72 2H16.43Z" fill="#26EAFC"/>
</svg>

<svg xmlns="http://www.w3.org/2000/svg" width="32" height="32" fill="none"><path fill="#0084CE" d="M8 18.016a11.001 11.001 0 0 1 3-1.765L15 16l4 .248a10.979 10.979 0 0 1 3 1.763L23.5 24 22 30H8l-1.5-6L8 18.016Z"/><path fill="#0074BA" d="m15 19.35-3.12 2.19c-.37.26-.88 0-.88-.46v-4.829a10.981 10.981 0 0 1 4.005-.751c1.41 0 2.757.265 3.995.748v4.832c0 .46-.51.72-.88.46L15 19.35ZM22 18.011V30h4v-3.5c0-3.42-1.557-6.472-4-8.489ZM8 30V18.016A10.974 10.974 0 0 0 4 26.5V30h4Z"/><path fill="#E6E6E6" d="m15.896 19.346-.63.554a.404.404 0 0 1-.532 0l-.63-.554A3.274 3.274 0 0 1 13 16.91v-2.952c.01-1.08.9-1.958 2.005-1.958 1.104 0 1.995.879 1.995 1.968v2.951a3.289 3.289 0 0 1-1.104 2.427Z"/><path fill="#FCB100" d="M15 18c-1.107 0-2-.965-2-2.162v-2.687c0-1.185.893-2.151 2-2.151s2 .966 2 2.162v2.687C16.99 17.035 16.097 18 15 18Z"/><path fill="#321B41" d="M22.2 8.01h.88c.27 0 .49-.22.49-.5V6.49a.49.49 0 0 0-.49-.49H6.92c-.28 0-.5.22-.49.49v1.03c0 .27.22.49.49.49h1.05V10H22.2V8.01Z"/><path fill="#F1A11E" d="M21.25 5.29c-.3-.52-.77-.88-1.29-1.06a2.56 2.56 0 0 1-1.38-1.08 2.377 2.377 0 0 0-2.97-.96c-.39.17-.83.17-1.22 0-.29-.12-.6-.19-.93-.19-.85 0-1.6.44-2.02 1.11-.33.52-.82.92-1.41 1.12-.55.19-1.03.58-1.32 1.13-.43.8-.34 1.76.15 2.47.17.26.27.57.27.88v4.17c0 .93.59 1.75 1.47 2.06l1.89.65V8.17c.15-.14.27-.31.38-.5.17-.29.27-.61.3-.92a2.32 2.32 0 0 0 1.82-.55c.42.35.95.57 1.54.57.1 0 .19-.01.28-.02a2.373 2.373 0 0 0 .68 1.42v7.43l1.89-.65c.88-.3 1.47-1.13 1.47-2.06V8.72c0-.31.1-.62.28-.88.52-.74.59-1.73.12-2.55Z"/><path fill="#FDBB11" d="M11.77 10.59a1.67 1.67 0 1 1-3.34 0 1.67 1.67 0 0 1 3.34 0ZM21.56 10.59a1.67 1.67 0 1 1-3.34 0 1.67 1.67 0 0 1 3.34 0Z"/><path fill="#FFC83D" d="M16.167 3.05h-2.334c-2.625 0-4.605 2.118-4.303 4.737l.396 5.81c.271 1.978 2.022 3.453 4.085 3.453h1.979c2.073 0 3.813-1.475 4.094-3.452l.376-5.811c.354-2.509-1.667-4.737-4.293-4.737Z"/><path fill="#fff" d="M11.18 10.28c.15-.62.71-1.08 1.38-1.08.7 0 1.27.49 1.4 1.15a.23.23 0 0 1-.23.28h-2.28c-.18 0-.32-.18-.27-.35ZM18.83 10.28c-.15-.62-.71-1.08-1.38-1.08-.7 0-1.27.49-1.4 1.15-.03.15.08.28.23.28h2.28c.18 0 .31-.17.27-.35Z"/><path fill="#7D4533" d="M11.86 10.39c0-.5.41-.91.91-.91a.9.9 0 0 1 .91.91c0 .08-.01.16-.03.24h-1.76a.986.986 0 0 1-.03-.24ZM18.15 10.39c0-.5-.41-.91-.91-.91-.51 0-.91.41-.91.91 0 .08.01.16.03.24h1.76c.02-.08.03-.16.03-.24Z"/><path fill="#000" d="M12.77 9.87a.516.516 0 0 1 .46.76h-.92a.516.516 0 0 1 .46-.76ZM17.24 9.87a.516.516 0 0 0-.46.76h.92a.516.516 0 0 0-.46-.76Z"/><path fill="#fff" d="M12.62 10.02a.16.16 0 1 1-.32 0 .16.16 0 0 1 .32 0ZM17.12 10.02a.16.16 0 1 1-.32 0 .16.16 0 0 1 .32 0Z"/><path fill="#ED9200" d="m14.654 10.29-.496 1.738c-.103.356.14.722.487.722h.73c.345 0 .589-.366.486-.722l-.496-1.738c-.103-.387-.599-.387-.71 0Z"/><path fill="#990839" d="M15 13.706c-.55 0-1.07-.14-1.508-.385-.153-.085-.306.096-.214.246.367.587.999.982 1.723.982.723 0 1.355-.395 1.722-.982.092-.15-.071-.32-.214-.246a3.118 3.118 0 0 1-1.508.385Z"/><path fill="#F59F00" d="M26 23c.55 0 1 .41 1 .912V26h-2v-2.088c.01-.502.45-.912 1-.912Z"/><path fill="#D3D3D3" d="m26.71 14.92-.71-.71-1.42 1.42c-.38.38-.59.89-.59 1.42v6.54h1v-6.74c0-.14.05-.27.15-.37l1.57-1.56Z"/><path fill="#50E2FF" d="m27.76 15.04.47-1.8a.437.437 0 0 0-.53-.53l-1.81.47c-.02.01-.05.01-.07.02h-.01c-.26.08-.51.22-.71.44-.56.6-.54 1.55.03 2.14.61.62 1.6.63 2.21.01.22-.22.35-.48.42-.75Z"/><path fill="#fff" d="M26.17 15.6a.85.85 0 1 0 0-1.7.85.85 0 0 0 0 1.7Z"/><path fill="#533566" d="M25.52 25.94h-2.05v-3c0-.19.16-.35.35-.35h1.35c.19 0 .35.16.35.35v3Z"/><path fill="#FFC83D" d="M22.51 25.5c.008-.4.327-.75.7-.75h2.997c.438 0 .793.39.793.87v3.51c0 .48-.355.87-.793.87H23.21c-.373 0-.692-.31-.7-.72-.01-.27.108-.51.3-.65a.74.74 0 0 1-.31-.62c0-.26.128-.49.31-.62a.74.74 0 0 1-.31-.62c0-.26.128-.49.31-.62a.79.79 0 0 1-.3-.65Z"/><path fill="#321B41" d="M21.56 4.67H9.3v2.65h12.26V4.67Z"/><path fill="#D37034" d="M11.345 8.667a.274.274 0 0 0 .33-.01 2.227 2.227 0 0 1 1.5-.354.267.267 0 0 0 .3-.24.274.274 0 0 0-.24-.3 2.712 2.712 0 0 0-1.9.465.274.274 0 0 0 .01.439ZM18.346 8.662a.275.275 0 0 0 .327.005.273.273 0 0 0 .01-.438 2.731 2.731 0 0 0-1.9-.466.274.274 0 0 0 .063.544 2.215 2.215 0 0 1 1.5.355Z"/><path fill="#533566" d="M7.97 10c.21-.47 1.98-4.06 7.03-4.06 5.6 0 7.04 4.06 7.04 4.06h.47c.27 0 .48-.22.48-.48V6.28A4.27 4.27 0 0 0 20 2.205l-1.28.045h-7.45L10 2.197A4.258 4.258 0 0 0 7 6.27v3.24c0 .27.21.49.48.49h.49Z"/><path fill="#8D65C5" d="M20.97 7.61a7.456 7.456 0 0 0-2.31-1.49c-1.09-.45-2.32-.68-3.66-.68-1.22 0-2.36.2-3.38.6-.84.33-1.61.79-2.28 1.38-1.16 1-1.69 2.07-1.83 2.37-.03.07-.04.14-.04.21h.5c.21-.47 1.98-4.06 7.03-4.06 5.6 0 7.04 4.06 7.04 4.06h.5c0-.06-.01-.11-.03-.17-.01-.05-.41-1.14-1.54-2.22Z"/><path fill="#B4F6FC" d="m13.98 4.37 2.52-.87-.07-1.5h-5.16c-.44 0-.87.07-1.27.19v1.62c0 .31.25.56.56.56h3.42Z"/><path fill="#26EAFC" d="m16.43 2-2.45 2.37h5.45c.31 0 .57-.25.57-.56V2.19c-.4-.12-.84-.19-1.28-.19h-2.29Z"/></svg>
